X:1
T:Title
%%score { 1 | ( 2 3 ) }
L:1/8
M:4/4
K:Bb
V:1 treble nm="Grand Piano"
V:2 bass 
V:3 bass 
V:1
 z4 z2 z[Q:1/4=100] [DF] | [DF]2 [EG][EA] [DB]2 [CA][DB] | c2 c>B A3 F | F2 AB c2 cd | %4
 e2 d>c [B,DB]3 [B,FB] | [B,GB]2 [B,^FA]>[B,GB] .[EGc]2 [EGB]>[B,EG] | [DF]2 [DB]>[Fd] c3 c | %7
 cBAB cded |[M:7/8] d2 d>c [DB]3 |[M:1/8] [DF] |[M:4/4] [DF]2 [DF]>[DF] [DB] [Fd]2 [DF] | %11
 G2 G>G [Ec] [Ge]2 c | B2 d>d c2 Bc | [Fd]6 z d | f2 [Af]>e d [DB]2 [FB] | %15
 [Ec]2 [=Ec]>[EB] A F2 F | G2 [EA]>[EA] [DB] [Fd]2 [Ec] |[M:7/8] [DB]-[DB]-[DB]- [DB]3 z |] %18
V:2
 z4 z2 z [B,,B,] | [B,,B,]2 [B,,B,][B,,F,] [B,,F,]2 [B,,F,][B,,F,] | %2
 [F,A,E]2 [F,A,E]>[F,B,D] [F,CE]3 [F,A,] | [F,A,]2 [F,F][F,G,F] [F,A,F]2 [F,A,F][F,B,F] | %4
 [F,CF]2 [F,B,F]>[F,A,E] B,,3 D, | E,2 E,>E, z[K:treble] B[K:bass] E,>E, | %6
 [B,,B,]2 [B,,B,]>[B,,B,] [F,A,F]3 [F,A,F] | [F,F]-[F,G,F][F,F][F,G,F] [F,F]-[F,B,F][F,CF][F,B,F] | %8
[M:7/8] [F,B,F]2 [F,A,F]>[F,E] [B,,F,]3 |[M:1/8] [B,,B,] | %10
[M:4/4] [B,,B,]2 [B,,B,]>[B,,B,] [B,,B,] [B,,B,]2 [B,,B,] | %11
 [E,B,E]2 [E,B,E]>[E,B,E] [C,C] [C,C]2 [E,G,E] | [F,D]2 [F,B,F]>[F,B,F] [F,A,F]2 [F,G,F][F,A,F] | %13
 [B,,B,]6 z[K:treble] [B,F] | [B,DF]2 [F,C]>[A,CF] [B,F][K:bass] [B,,B,]2 [D,B,] | %15
 [E,G,]2 [C,G,]>[C,C] [F,CF] [F,A,]2 [D,B,] | [E,B,E]2 [C,F,]>[C,F,] [B,,F,] [B,,B,]2 [F,A,] | %17
[M:7/8] [B,,B,]-[B,,B,]-[B,,B,]- [B,,B,]3 z |] %18
V:3
 x8 | x8 | x8 | x8 | x8 | z4 E,2[K:treble][K:bass] z2 | x8 | .A,2 z2 .A,2 z2 |[M:7/8] x7 | %9
[M:1/8] x |[M:4/4] x8 | x8 | x8 | x7[K:treble] x | x5[K:bass] x3 | x8 | x8 |[M:7/8] x7 |] %18

